flash-vue-admin/src/icons/svg/list.svg

<?xml version="1.0" standalone="no"?><!DOCTYPE svg PUBLIC "-//W3C//DTD SVG 1.1//EN" "http://www.w3.org/Graphics/SVG/1.1/DTD/svg11.dtd"><svg t="1525761666409" class="icon" style="" viewBox="0 0 1024 1024" version="1.1" xmlns="http://www.w3.org/2000/svg" p-id="10880" xmlns:xlink="http://www.w3.org/1999/xlink" width="200" height="200"><defs><style type="text/css"></style></defs><path d="M107.2 212.8m-67.2 0a4.2 4.2 0 1 0 134.4 0 4.2 4.2 0 1 0-134.4 0Z" p-id="10881"></path><path d="M980.8 145.6 297.6 145.6c-9.6 0-16 8-16 16l0 102.4c0 9.6 8 16 16 16l683.2 0c9.6 0 16-8 16-16l0-102.4C996.8 152 988.8 145.6 980.8 145.6z" p-id="10882"></path><path d="M96 497.6m-67.2 0a4.2 4.2 0 1 0 134.4 0 4.2 4.2 0 1 0-134.4 0Z" p-id="10883"></path><path d="M968 430.4 284.8 430.4c-9.6 0-16 8-16 16l0 102.4c0 9.6 8 16 16 16l683.2 0c9.6 0 16-8 16-16l0-102.4C984 438.4 977.6 430.4 968 430.4z" p-id="10884"></path><path d="M96 795.2m-67.2 0a4.2 4.2 0 1 0 134.4 0 4.2 4.2 0 1 0-134.4 0Z" p-id="10885"></path><path d="M968 728 284.8 728c-9.6 0-16 8-16 16l0 102.4c0 9.6 8 16 16 16l683.2 0c9.6 0 16-8 16-16l0-102.4C984 736 977.6 728 968 728z" p-id="10886"></path></svg>

<svg class="icon" viewBox="0 0 1024 1024" xmlns="http://www.w3.org/2000/svg" width="200" height="200"><defs><style/></defs><path d="M40 212.8a4.2 4.2 0 1 0 134.4 0 4.2 4.2 0 1 0-134.4 0zM980.8 145.6H297.6c-9.6 0-16 8-16 16V264c0 9.6 8 16 16 16h683.2c9.6 0 16-8 16-16V161.6c0-9.6-8-16-16-16zM28.799999999999997 497.6a4.2 4.2 0 1 0 134.4 0 4.2 4.2 0 1 0-134.4 0zM968 430.4H284.8c-9.6 0-16 8-16 16v102.4c0 9.6 8 16 16 16H968c9.6 0 16-8 16-16V446.4c0-8-6.4-16-16-16zM28.799999999999997 795.2a4.2 4.2 0 1 0 134.4 0 4.2 4.2 0 1 0-134.4 0zM968 728H284.8c-9.6 0-16 8-16 16v102.4c0 9.6 8 16 16 16H968c9.6 0 16-8 16-16V744c0-8-6.4-16-16-16z"/></svg>
